packages/ffe-icons/icons/open/300/md/mode_comment.svg

<svg xmlns="http://www.w3.org/2000/svg" height="24" viewBox="0 -960 960 960" width="24"><path d="M172.309-260.001q-30.308 0-51.308-21t-21-51.308v-455.382q0-30.308 21-51.308t51.308-21h615.382q30.308 0 51.308 21t21 51.308v581.843q0 24.307-22.193 33.653-22.192 9.346-39.269-7.73l-80.076-80.076H172.309ZM743.999-320 800-264.615v-523.076q0-4.616-3.846-8.463-3.847-3.846-8.463-3.846H172.309q-4.616 0-8.463 3.846-3.846 3.847-3.846 8.463v455.382q0 4.616 3.846 8.463 3.847 3.846 8.463 3.846h571.69ZM160-320V-800v480Z"/></svg>

<svg xmlns="http://www.w3.org/2000/svg" height="24" viewBox="0 -960 960 960" width="24"><path d="M172.31-260Q142-260 121-281q-21-21-21-51.31v-455.38Q100-818 121-839q21-21 51.31-21h615.38Q818-860 839-839q21 21 21 51.31v581.84q0 24.31-22.19 33.66-22.2 9.34-39.27-7.74L718.46-260H172.31ZM744-320l56 55.39v-523.08q0-4.62-3.85-8.46-3.84-3.85-8.46-3.85H172.31q-4.62 0-8.46 3.85-3.85 3.84-3.85 8.46v455.38q0 4.62 3.85 8.46 3.84 3.85 8.46 3.85H744Zm-584 0v-480 480Z"/></svg>
